assets/img/braze_icons/expand-04.svg

<svg fill="none" height="24" viewBox="0 0 24 24" width="24" xmlns="http://www.w3.org/2000/svg"><g fill="#801ed7"><path d="m14 3c0-.55228.4477-1 1-1h6c.5523 0 1 .44772 1 1v6c0 .55229-.4477 1-1 1s-1-.44771-1-1v-3.58579l-4.2929 4.2929c-.3905.39049-1.0237.39049-1.4142 0-.3905-.39053-.3905-1.02369 0-1.41422l4.2929-4.29289h-3.5858c-.5523 0-1-.44772-1-1z"/><path d="m10 3h-2.83854c-.52715-.00002-.98192-.00003-1.35649.03057-.39534.0323-.78856.10362-1.16694.29641-.56449.28762-1.02343.74656-1.31105 1.31105-.19279.37838-.26411.7716-.29641 1.16694-.0306.37457-.03059.82934-.03057 1.35648v2.83855c0 .5523.44772 1 1 1 .55229 0 1-.4477 1-1v-2.8c0-.57655.00078-.94883.02393-1.23216.02219-.27167.05987-.37238.08507-.42183.09587-.18816.24885-.34114.43701-.43701.04945-.0252.15016-.06288.42183-.08507.28333-.02315.65561-.02393 1.23216-.02393h2.8c.5523 0 1-.44771 1-1 0-.55228-.4477-1-1-1z"/><path d="m19 14v2.8c0 .5766-.0008.9488-.0239 1.2322-.0222.2716-.0599.3723-.0851.4218-.0959.1882-.2488.3411-.437.437-.0495.0252-.1502.0629-.4218.0851-.2834.0231-.6556.0239-1.2322.0239h-2.8c-.5523 0-1 .4477-1 1s.4477 1 1 1h2.8385c.5272 0 .982 0 1.3565-.0306.3954-.0323.7886-.1036 1.167-.2964.5645-.2876 1.0234-.7465 1.311-1.311.1928-.3784.2641-.7716.2964-1.167.0306-.3745.0306-.8293.0306-1.3565v-2.8385c0-.5523-.4477-1-1-1s-1 .4477-1 1z"/><path d="m9.70711 15.7071c.39049-.3905.39049-1.0237 0-1.4142-.39053-.3905-1.02369-.3905-1.41422 0l-4.29289 4.2929v-3.5858c0-.5523-.44771-1-1-1-.55228 0-1 .4477-1 1v6c0 .5523.44772 1 1 1h6c.55228 0 1-.4477 1-1s-.44772-1-1-1h-3.58579z"/></g></svg>

<svg width="24" height="24" viewBox="0 0 24 24" fill="none" xmlns="http://www.w3.org/2000/svg">
<path d="M14 3C14 2.44772 14.4477 2 15 2H21C21.5523 2 22 2.44772 22 3V9C22 9.55229 21.5523 10 21 10C20.4477 10 20 9.55229 20 9V5.41421L15.7071 9.70711C15.3166 10.0976 14.6834 10.0976 14.2929 9.70711C13.9024 9.31658 13.9024 8.68342 14.2929 8.29289L18.5858 4H15C14.4477 4 14 3.55228 14 3Z" fill="#801ED7"/>
<path d="M10 3L7.16146 3C6.63431 2.99998 6.17954 2.99997 5.80497 3.03057C5.40963 3.06287 5.01641 3.13419 4.63803 3.32698C4.07354 3.6146 3.6146 4.07354 3.32698 4.63803C3.13419 5.01641 3.06287 5.40963 3.03057 5.80497C2.99997 6.17954 2.99998 6.63431 3 7.16145L3 10C3 10.5523 3.44772 11 4 11C4.55229 11 5 10.5523 5 10V7.2C5 6.62345 5.00078 6.25117 5.02393 5.96784C5.04612 5.69617 5.0838 5.59546 5.109 5.54601C5.20487 5.35785 5.35785 5.20487 5.54601 5.109C5.59546 5.0838 5.69617 5.04612 5.96784 5.02393C6.25117 5.00078 6.62345 5 7.2 5H10C10.5523 5 11 4.55229 11 4C11 3.44772 10.5523 3 10 3Z" fill="#801ED7"/>
<path d="M19 14V16.8C19 17.3766 18.9992 17.7488 18.9761 18.0322C18.9539 18.3038 18.9162 18.4045 18.891 18.454C18.7951 18.6422 18.6422 18.7951 18.454 18.891C18.4045 18.9162 18.3038 18.9539 18.0322 18.9761C17.7488 18.9992 17.3766 19 16.8 19H14C13.4477 19 13 19.4477 13 20C13 20.5523 13.4477 21 14 21H16.8385C17.3657 21 17.8205 21 18.195 20.9694C18.5904 20.9371 18.9836 20.8658 19.362 20.673C19.9265 20.3854 20.3854 19.9265 20.673 19.362C20.8658 18.9836 20.9371 18.5904 20.9694 18.195C21 17.8205 21 17.3657 21 16.8385V14C21 13.4477 20.5523 13 20 13C19.4477 13 19 13.4477 19 14Z" fill="#801ED7"/>
<path d="M9.70711 15.7071C10.0976 15.3166 10.0976 14.6834 9.70711 14.2929C9.31658 13.9024 8.68342 13.9024 8.29289 14.2929L4 18.5858L4 15C4 14.4477 3.55229 14 3 14C2.44772 14 2 14.4477 2 15V21C2 21.5523 2.44772 22 3 22H9C9.55228 22 10 21.5523 10 21C10 20.4477 9.55228 20 9 20H5.41421L9.70711 15.7071Z" fill="#801ED7"/>
</svg>
